X:1
T:Sing ye with praise unto the Lord
T:Uriah Davenport (of Rushton Spencer)
T:Text: John Hopkins, on Ps. 96.
T:This edition by Edmund Gooch released into the public domain, December 2010. As such, it may be freely copied and performed.
T:Sing ye with praise unto the Lord
T:PSALM XCVI
C:Uriah Davenport
C:(of Rushton Spencer)
Z:Text: John Hopkins, on Ps. 96.
%%score [ 1 2 3 4 ]
L:1/8
M:3/4
K:G
V:1 treble nm="SOPRANO" snm="S."
V:2 treble nm="ALTO" snm="A."
V:3 treble-8 transpose=-12 nm="TENOR" snm="T."
V:4 bass nm="BASS" snm="B."
V:1
 z6 | z6 | z6 | z6 | z6 | z6 | z6 | z6 |"^[Soprano]" B2 B2 A2 | (B>c B>A G2) | B2 c2 B2 | A4 z2 | %12
w: ||||||||To judge the|na- * * * *|tions ev- ’ry|one|
w: ||||||||Sing un- to|him _ _ _ _|with one ac-|cord,|
w: ||||||||Let all the|peo- * * * *|ple of the|world|
 (B>A B>c B2) | (A>G A>B A2) | G2 G2 F2 | G4 z2 | G2 G2 F2 | G4 B2 | G4 G2 | F4 z2 | G2 F2 G2 | %21
w: With _ _ _ _|e- * * * *|qui- ty and|right.|The heav’ns shall|joy- ful-|ly be-|gin,|The earth like-|
w: All _ _ _ _|peo- * * * *|ple on the|earth.|Yea, sing un-|to the|Lord al-|ways;|Praise ye his|
w: Be _ _ _ _|fear- * * * *|ful at his|sight.|Tell all the|world, be|not a-|fraid,|The Lord doth|
 B4 A2 | A4 z2 | G2 G2 F2 | G6 | G2 A2 (Bc) | d4 z2 | B6 | A6 | G2 G2 F2 | G6 |] %31
w: wise re-|joice,|The sea with|all|that is there- *|in|Shall|shout|and make a|noise.|
w: ho- ly|name:|De- clare and|shew|from day to _|day|Sal-|va-|tion by the|same.|
w: reign a-|bove;|Yea, he the|earth|so fast hath _|stay’d|That|it|can ne- ver|move:|
V:2
"^[Alto]" D2 D2 E2 | (D>C D>E F2) | D2 E2 (DE) | F4 z2 | (F>G F>G F/E/D) | (E>F E>F GF/E/) | %6
w: And that it|is _ _ _ _|the Lord a- *|lone|That _ _ _ _ _ _|rules _ _ _ _ _ _|
w: Sing ye with|praise _ _ _ _|un- to the _|Lord|New _ _ _ _ _ _|songs _ _ _ _ _ _|
w: Fall down and|wor- * * * *|ship ye the _|Lord|With- * * * * * *|in _ _ _ _ _ _|
 D2 (ED) C2 | B,4 z2 | z6 | z6 | z6 | z6 | z6 | z6 | z6 | z6 | D2 D2 D2 | D4 G2 | E4 D2 | D4 z2 | %20
w: with prince- * ly|might,|||||||||The heav’ns shall|joy- ful-|ly be-|gin,|
w: with joy _ and|mirth:|||||||||Yea, sing un-|to the|Lord al-|ways;|
w: his tem- * ple|bright:|||||||||Tell all the|world, be|not a-|fraid,|
 D2 D2 D2 | G4 E2 | F4 z2 | D2 D2 D2 | D6 | D2 (EF) G2 | F4 z2 | G6 | F6 | D2 E2 D2 | D6 |] %31
w: The earth like-|wise re-|joice,|The sea with|all|that is _ there-|in|Shall|shout|and make a|noise.|
w: Praise ye his|ho- ly|name:|De- clare and|shew|from day _ to|day|Sal-|va-|tion by the|same.|
w: The Lord doth|reign a-|bove;|Yea, he the|earth|so fast _ hath|stay’d|That|it|can ne- ver|move:|
V:3
"^[Tenor]" G2 B2 A2 | (B>A B>c d2) | B2 c2 B2 | A4 z2 | (d>e d>e d/c/B) | (c>d c>d c/B/A) | %6
w: And that it|is _ _ _ _|the Lord a-|lone|That _ _ _ _ _ _|rules _ _ _ _ _ _|
w: Sing ye with|praise _ _ _ _|un- to the|Lord|New _ _ _ _ _ _|songs _ _ _ _ _ _|
w: Fall down and|wor- * * * *|ship ye the|Lord|With- * * * * * *|in _ _ _ _ _ _|
 B2 (cB) A2 | G4 z2 | z6 | z6 | z6 | z6 | z6 | z6 | z6 | z6 | B2 B2 A2 | B4 d2 | c4 B2 | A4 z2 | %20
w: with prince- * ly|might,|||||||||The heav’ns shall|joy- ful-|ly be-|gin,|
w: with joy _ and|mirth:|||||||||Yea, sing un-|to the|Lord al-|ways;|
w: his tem- * ple|bright:|||||||||Tell all the|world, be|not a-|fraid,|
 B2 A2 d2 | d4 ^c2 | d4 z2 | B2 B2 A2 | (B>A B>c d2) | B2 c2 B2 | A4 z2 | (d>e d>e d/c/B) | %28
w: The earth like-|wise re-|joice,|The sea with|all _ _ _ _|that is there-|in|Shall _ _ _ _ _ _|
w: Praise ye his|ho- ly|name:|De- clare and|shew _ _ _ _|from day to|day|Sal- * * * * * *|
w: The Lord doth|reign a-|bove;|Yea, he the|earth _ _ _ _|so fast hath|stay’d|That _ _ _ _ _ _|
 (c>d c>d c/B/A) | B2 (cB) A2 | G6 |] %31
w: shout _ _ _ _ _ _|and make _ a|noise.|
w: va- * * * * * *|tion by _ the|same.|
w: it _ _ _ _ _ _|can ne- * ver|move:|
V:4
 z6 | z6 | z6 | z6 | z6 | z6 | z6 | z6 |"^[Bass]" G,2 G,2 D,2 | (G,>F, G,>A, B,2) | %10
w: ||||||||To judge the|na- * * * *|
w: ||||||||Sing un- to|him _ _ _ _|
w: ||||||||Let all the|peo- * * * *|
 B,,2 A,,2 G,,2 | D,4 z2 | (B,>C B,>A, G,2) | (A,>B, A,>G, F,2) | G,2 C,2 D,2 | G,,4 z2 | %16
w: tions ev- ’ry|one|With _ _ _ _|e- * * * *|qui- ty and|right.|
w: with one ac-|cord,|All _ _ _ _|peo- * * * *|ple on the|earth.|
w: ple of the|world|Be _ _ _ _|fear- * * * *|ful at his|sight.|
 G,2 G,2 D,2 | G,4 G,2 | C,4 G,,2 | D,4 z2 | G,2 D,2 B,,2 | G,,4 A,,2 | D,4 z2 | G,2 G,2 D,2 | %24
w: The heav’ns shall|joy- ful-|ly be-|gin,|The earth like-|wise re-|joice,|The sea with|
w: Yea, sing un-|to the|Lord al-|ways;|Praise ye his|ho- ly|name:|De- clare and|
w: Tell all the|world, be|not a-|fraid,|The Lord doth|reign a-|bove;|Yea, he the|
"^Emendations: Original clefs treble, alto, tenor and bass. The first stanza only of the text is given in the source:a selection of three further stanzas have been selected and underlaid editorially." (G,>F, G,>A, B,2) | %25
w: all _ _ _ _|
w: shew _ _ _ _|
w: earth _ _ _ _|
 B,,2 A,,2 G,,2 | D,4 z2 | (B,>C B,>A, G,2) | (A,>B, A,>G, F,2) | G,2 C,2 D,2 | G,,6 |] %31
w: that is there-|in|Shall _ _ _ _|shout _ _ _ _|and make a|noise.|
w: from day to|day|Sal- * * * *|va- * * * *|tion by the|same.|
w: so fast hath|stay’d|That _ _ _ _|it _ _ _ _|can ne- ver|move:|

